qtOgitor/res/icons/node.svg

<svg width="20" xmlns="http://www.w3.org/2000/svg" height="20" viewBox="0 0 16 16">
<g fill="#06c">
<path d="m1.28,0h.36c-.09,.03-.28,.08-.37,.11l.01-.11z"/>
<path d="m5.63,0h.31v.35l-.05-.27-.26-.08z"/>
<path d="m1.09,4.65c.08,.03 .25,.09 .34,.12l-.35-.03 .01-.09z"/>
<path d="m5.75,4.75c.01-.06 .03-.19 .03-.26l-.01,.26h-.02z"/>
<path d="m9.24,5.09h.09c-.03,.08-.08,.25-.11,.33l.02-.33z"/>
<path d="m13.57,5.22h.32v.06c-.08-.01-.24-.04-.32-.06z"/>
<path d="m9.22,9.56c.02,.08 .08,.25 .1,.34l-.08-.01-.02-.33z"/>
<path d="m13.7,9.88c.03-.09 .08-.26 .1-.34v.34h-.1z"/>
<path d="m9.29,11.12h.04c-.02,.07-.07,.2-.09,.27l.05-.27z"/>
<path d="m13.66,11.09l.18,.01v.4c-.05-.1-.13-.31-.18-.41z"/>
<path d="m9.17,15.77l.06,.21 .19,.02h-.21l-.04-.23z"/>
<path d="m13.37,16c.09-.03 .28-.09 .38-.12l-.01,.12h-.37z"/>
</g>
<g fill="#00082e">
<path opacity=".63" d="m1.64,0h3.99l.26,.08 .05,.27c-.04,1.03-.12,3.11-.16,4.14 0,.07-.02,.2-.03,.26l-1.34,.32-1.43-.11-1.55-.19c-.09-.03-.26-.09-.34-.12 .04-1.14 .13-3.41 .18-4.54 .09-.03 .28-.08 .37-.11m.94,1.59c0,.46 0,1.37 0,1.83 .46,0 1.38,0 1.84,0 0-.46 0-1.38 0-1.84-.46,0-1.38,.01-1.84,.01z"/>
<path opacity=".63" d="m9.33,5.09c1.06,.03 3.18,.1 4.24,.13 .08,.02 .24,.05 .32,.06-.02,1.07-.06,3.19-.09,4.26-.02,.08-.07,.25-.1,.34-1.1,0-3.28,.01-4.38,.02-.02-.09-.08-.26-.1-.34l-.15-1.59-.01-.9 .16-1.65c.03-.08 .08-.25 .11-.33m1.25,1.5c0,.45 .01,1.37 .01,1.83 .45,0 1.37,0 1.83-.01 0-.45 0-1.37 0-1.83-.46,0-1.38,0-1.84,.01z"/>
<path opacity=".63" d="m9.33,11.12c1.08-.01 3.25-.02 4.33-.03 .05,.1 .13,.31 .18,.41-.02,1.09-.07,3.28-.09,4.38-.1,.03-.29,.09-.38,.12h-3.95l-.19-.02-.06-.21-.38-1.69 .15-1.09 .3-1.6c.02-.07 .07-.2 .09-.27m1.25,1.46c0,.46 0,1.37 0,1.83 .46,0 1.38,0 1.84,0 0-.46 0-1.37-.01-1.83-.45,0-1.37,0-1.83,0z"/>
</g>
<g fill="#002020">
<path opacity=".13" d="m2.58,1.59c.46,0 1.38-.01 1.84-.01 0,.46 0,1.38 0,1.84-.46,0-1.38,0-1.84,0 0-.46 0-1.37 0-1.83z"/>
<path opacity=".13" d="m10.58,6.59c.46-.01 1.38-.01 1.84-.01 0,.46 0,1.38 0,1.83-.46,.01-1.38,.01-1.83,.01 0-.46-.01-1.38-.01-1.83z"/>
<path opacity=".13" d="m10.58,12.58c.46,0 1.38,0 1.83,0 .01,.46 .01,1.37 .01,1.83-.46,0-1.38,0-1.84,0 0-.46 0-1.37 0-1.83z"/>
</g>
<path opacity=".85" fill="#d97d00" d="m2.98,4.96l1.43,.11c-.25,.47-.74,1.4-.98,1.86 1.88,.1 3.75,.06 5.63,.14l.01,.9c-1.71,.03-3.42-.01-5.12-.03l-.95-.01c-.01-.74-.02-2.23-.02-2.97z"/>
<path opacity=".84" fill="#d67500" d="m3,7.93l.95,.01c.05,1.7 .05,3.4 .01,5.11 1.66-.06 3.32-.03 4.98-.06l-.15,1.09c-1.94-.07-3.88-.08-5.82-.07 .06-2.03-.02-4.06 .03-6.08z"/>
</svg>

<?xml version="1.0" encoding="UTF-8" standalone="no"?>
<!-- Created with Inkscape (http://www.inkscape.org/) -->
<svg
   xmlns:svg="http://www.w3.org/2000/svg"
   xmlns="http://www.w3.org/2000/svg"
   version="1.0"
   width="16pt"
   height="16pt"
   viewBox="0 0 16 16"
   id="svg2">
  <defs
     id="defs50" />
  <g
     id="#0066ccff">
    <path
       d="M 1.28,0 L 1.64,0 C 1.55,0.03 1.36,0.08 1.27,0.11 L 1.28,0 z"
       id="path5"
       style="opacity:1;fill:#0066cc" />
    <path
       d="M 5.63,0 L 5.94,0 L 5.94,0.35 L 5.89,0.08 L 5.63,0 z"
       id="path7"
       style="opacity:1;fill:#0066cc" />
    <path
       d="M 1.09,4.65 C 1.17,4.68 1.34,4.74 1.43,4.77 L 1.08,4.74 L 1.09,4.65 z"
       id="path9"
       style="opacity:1;fill:#0066cc" />
    <path
       d="M 5.75,4.75 C 5.76,4.69 5.78,4.56 5.78,4.49 L 5.77,4.75 L 5.75,4.75 z"
       id="path11"
       style="opacity:1;fill:#0066cc" />
    <path
       d="M 9.24,5.09 L 9.33,5.09 C 9.3,5.17 9.25,5.34 9.22,5.42 L 9.24,5.09 z"
       id="path13"
       style="opacity:1;fill:#0066cc" />
    <path
       d="M 13.57,5.22 L 13.89,5.22 L 13.89,5.28 C 13.81,5.27 13.65,5.24 13.57,5.22 z"
       id="path15"
       style="opacity:1;fill:#0066cc" />
    <path
       d="M 9.22,9.56 C 9.24,9.64 9.3,9.81 9.32,9.9 L 9.24,9.89 L 9.22,9.56 z"
       id="path17"
       style="opacity:1;fill:#0066cc" />
    <path
       d="M 13.7,9.88 C 13.73,9.79 13.78,9.62 13.8,9.54 L 13.8,9.88 L 13.7,9.88 z"
       id="path19"
       style="opacity:1;fill:#0066cc" />
    <path
       d="M 9.29,11.12 L 9.33,11.12 C 9.31,11.19 9.26,11.32 9.24,11.39 L 9.29,11.12 z"
       id="path21"
       style="opacity:1;fill:#0066cc" />
    <path
       d="M 13.66,11.09 L 13.84,11.1 L 13.84,11.5 C 13.79,11.4 13.71,11.19 13.66,11.09 z"
       id="path23"
       style="opacity:1;fill:#0066cc" />
    <path
       d="M 9.17,15.77 L 9.23,15.98 L 9.42,16 L 9.21,16 L 9.17,15.77 z"
       id="path25"
       style="opacity:1;fill:#0066cc" />
    <path
       d="M 13.37,16 C 13.46,15.97 13.65,15.91 13.75,15.88 L 13.74,16 L 13.37,16 z"
       id="path27"
       style="opacity:1;fill:#0066cc" />
  </g>
  <g
     id="#00082ea1">
    <path
       d="M 1.64,0 L 5.63,0 L 5.89,0.08 L 5.94,0.35 C 5.9,1.38 5.82,3.46 5.78,4.49 C 5.78,4.56 5.76,4.69 5.75,4.75 L 4.41,5.07 L 2.98,4.96 L 1.43,4.77 C 1.34,4.74 1.17,4.68 1.09,4.65 C 1.13,3.51 1.22,1.24 1.27,0.11 C 1.36,0.08 1.55,0.03 1.64,0 M 2.58,1.59 C 2.58,2.05 2.58,2.96 2.58,3.42 C 3.04,3.42 3.96,3.42 4.42,3.42 C 4.42,2.96 4.42,2.04 4.42,1.58 C 3.96,1.58 3.04,1.59 2.58,1.59 z"
       id="path30"
       style="opacity:0.62999998;fill:#00082e" />
    <path
       d="M 9.33,5.09 C 10.39,5.12 12.51,5.19 13.57,5.22 C 13.65,5.24 13.81,5.27 13.89,5.28 C 13.87,6.35 13.83,8.47 13.8,9.54 C 13.78,9.62 13.73,9.79 13.7,9.88 C 12.6,9.88 10.42,9.89 9.32,9.9 C 9.3,9.81 9.24,9.64 9.22,9.56 L 9.07,7.97 L 9.06,7.07 L 9.22,5.42 C 9.25,5.34 9.3,5.17 9.33,5.09 M 10.58,6.59 C 10.58,7.04 10.59,7.96 10.59,8.42 C 11.04,8.42 11.96,8.42 12.42,8.41 C 12.42,7.96 12.42,7.04 12.42,6.58 C 11.96,6.58 11.04,6.58 10.58,6.59 z"
       id="path32"
       style="opacity:0.62999998;fill:#00082e" />
    <path
       d="M 9.33,11.12 C 10.41,11.11 12.58,11.1 13.66,11.09 C 13.71,11.19 13.79,11.4 13.84,11.5 C 13.82,12.59 13.77,14.78 13.75,15.88 C 13.65,15.91 13.46,15.97 13.37,16 L 9.42,16 L 9.23,15.98 L 9.17,15.77 L 8.79,14.08 L 8.94,12.99 L 9.24,11.39 C 9.26,11.32 9.31,11.19 9.33,11.12 M 10.58,12.58 C 10.58,13.04 10.58,13.95 10.58,14.41 C 11.04,14.41 11.96,14.41 12.42,14.41 C 12.42,13.95 12.42,13.04 12.41,12.58 C 11.96,12.58 11.04,12.58 10.58,12.58 z"
       id="path34"
       style="opacity:0.62999998;fill:#00082e" />
  </g>
  <g
     id="#00202021">
    <path
       d="M 2.58,1.59 C 3.04,1.59 3.96,1.58 4.42,1.58 C 4.42,2.04 4.42,2.96 4.42,3.42 C 3.96,3.42 3.04,3.42 2.58,3.42 C 2.58,2.96 2.58,2.05 2.58,1.59 z"
       id="path37"
       style="opacity:0.12999998;fill:#002020" />
    <path
       d="M 10.58,6.59 C 11.04,6.58 11.96,6.58 12.42,6.58 C 12.42,7.04 12.42,7.96 12.42,8.41 C 11.96,8.42 11.04,8.42 10.59,8.42 C 10.59,7.96 10.58,7.04 10.58,6.59 z"
       id="path39"
       style="opacity:0.12999998;fill:#002020" />
    <path
       d="M 10.58,12.58 C 11.04,12.58 11.96,12.58 12.41,12.58 C 12.42,13.04 12.42,13.95 12.42,14.41 C 11.96,14.41 11.04,14.41 10.58,14.41 C 10.58,13.95 10.58,13.04 10.58,12.58 z"
       id="path41"
       style="opacity:0.12999998;fill:#002020" />
  </g>
  <g
     id="#d97d00da">
    <path
       d="M 2.98,4.96 L 4.41,5.07 C 4.16,5.54 3.67,6.47 3.43,6.93 C 5.31,7.03 7.18,6.99 9.06,7.07 L 9.07,7.97 C 7.36,8 5.65,7.96 3.95,7.94 L 3,7.93 C 2.99,7.19 2.98,5.7 2.98,4.96 z"
       id="path44"
       style="opacity:0.85;fill:#d97d00" />
  </g>
  <g
     id="#d67500d6">
    <path
       d="M 3,7.93 L 3.95,7.94 C 4,9.64 4,11.34 3.96,13.05 C 5.62,12.99 7.28,13.02 8.94,12.99 L 8.79,14.08 C 6.85,14.01 4.91,14 2.97,14.01 C 3.03,11.98 2.95,9.95 3,7.93 z"
       id="path47"
       style="opacity:0.83999999;fill:#d67500" />
  </g>
</svg>
